packages/tokens/icons/learning/size32Px.svg

<svg viewBox="0 0 32 32" fill="none" xmlns="http://www.w3.org/2000/svg" width="1em" height="1em"><path d="M3.11985 13.3474C2.78536 13.2436 2.78913 12.7689 3.12523 12.6704L15.8012 8.95771C15.931 8.9197 16.069 8.9197 16.1988 8.95771L28.8748 12.6704C29.2109 12.7689 29.2146 13.2436 28.8801 13.3474L16.2095 17.2781C16.073 17.3205 15.927 17.3205 15.7905 17.2781L3.11985 13.3474Z" stroke="currentColor" stroke-linejoin="round"/><path d="M26.7487 14V20.1713" stroke="currentColor" stroke-linecap="round"/><path d="M8.36371 17.4854V22.4351C8.36371 22.8256 8.68029 23.1422 9.07082 23.1422L23.213 23.1422C23.6035 23.1422 23.9201 22.8256 23.9201 22.4351V17.4854" stroke="currentColor" stroke-linecap="round" stroke-linejoin="round"/></svg>

<svg xmlns="http://www.w3.org/2000/svg" fill="none" viewBox="0 0 32 32" width="1em" height="1em"><path stroke="currentColor" stroke-linejoin="round" d="M3.12 13.347a.354.354 0 0 1 .005-.677l12.676-3.712a.707.707 0 0 1 .398 0l12.676 3.712c.336.099.34.574.005.677l-12.67 3.931a.706.706 0 0 1-.42 0l-12.67-3.93Z"/><path stroke="currentColor" stroke-linecap="round" d="M26.749 14v6.171"/><path stroke="currentColor" stroke-linecap="round" stroke-linejoin="round" d="M8.364 17.485v4.95c0 .39.316.707.707.707h14.142c.39 0 .707-.316.707-.707v-4.95"/></svg>
